X:23012
T:Wayfaring Stranger
R:March
C:Trad.
O:USA
Z:Paul Hardy's Session Tunebook 2015 (see www.paulhardy.net). Creative Commons cc by-nc-sa licenced.
M:2/2
L:1/4
Q:1/2=80
K:Am
"Am"zA Ae|e4-|"Dm"ed/c/de|"Am"c>B A2-|A A Ae|"Dm"d4-|dAc>d|"Am"e4|
"Am"zA Ae|e4-|"Dm"ed/c/de|"Am"c>B A2-|A A Ae|"Dm"d4-|ddc/A/G|"Am"A4|
"Am"ze eg|"F"a4-|agag|"C"e<g- g2-|g e eg|"F"a4-|age/d/c|"Am"e4-|
"E7"eAAe|"Am"e4-|"Dm"ed/c/de|"Am"c>BA2-|A AAe|"Dm"d4-|ddc/A/G|"Am"A4|]

